X:215
T: I'll Take a Gay Glass With a Friend
N: O'Farrell's Pocket Companion v.3 (Sky ed. p.107)
N: "Irish"
M: 9/8
L: 1/8
R: slip jig
Q: 270
K: Amix % original in 3 sharps but I think Amix sounds better
A/G/| EAA ABA/G/ Acd| e>fe cAG G2G| EAA ABA/G/ Acd|
e>fe dcA A2 :|
c/d/|e>fe edc d>cA| cdc/A/ GEE G2G| e>fe edc d>cA|
e>fe dcA A2 :|
